src/img/HomePage/ChefTakeshi/desktopBlackPepper.svg

<?xml version="1.0" encoding="UTF-8"?> <svg xmlns="http://www.w3.org/2000/svg" width="328" height="348" viewBox="0 0 328 348" fill="none"> <path fill-rule="evenodd" clip-rule="evenodd" d="M38.0818 90.4139C36.4262 92.8919 35.4334 96.6204 34.4479 104.05C33.7021 109.675 32.5468 117.611 31.8812 121.685C30.5355 129.922 31.0186 140.594 33.272 152.407C35.8352 165.837 38.0492 171.88 48.2249 193.224C49.5127 195.924 52.4182 200.209 54.9399 203.124C57.384 205.951 61.0154 210.644 63.0105 213.551C72.5333 227.436 85.2231 239.077 98.2241 245.858C100.974 247.292 103.299 248.594 103.389 248.751C103.78 249.431 133.513 266.457 159.618 271.507C172.239 273.948 174.925 275.962 200.775 272.444C218.15 270.08 222.018 268.843 224.571 264.84C225.914 262.733 233.515 256.753 237.88 254.369C239.459 253.506 248.393 252.728 263.585 252.133C276.391 251.63 287.349 251.286 287.935 251.367C290.794 251.764 303.044 249.663 308.724 247.802C317.534 244.914 322.894 240.466 324.429 234.765C325.199 231.91 322.9 228.643 320.001 228.472C317.698 228.336 317.295 228.64 313.668 233.248C307.931 240.536 304.109 241.923 287.26 242.828C257.957 244.403 237.391 242.387 229.37 237.156C226.672 235.395 225.999 234.521 225.32 231.892C224.639 229.252 223.941 228.353 221.034 226.369C216.16 223.042 210.296 222.195 197.227 222.93C181.75 223.801 167.655 222.689 164.697 222.224C155.284 220.744 140.848 215.964 140.848 215.964C140.848 215.964 122.729 210.73 114.938 207.392C105.348 203.284 96.0873 196.228 78.465 179.606C72.3734 173.86 71.3963 172.531 61.9547 157.152C50.7572 138.912 48.5561 133.894 47.6499 124.532C46.9917 117.73 47.8176 104.846 49.1841 100.605C51.5142 93.3716 50.4246 85.2994 46.9921 84.3698C44.8266 83.7834 40.5931 86.6549 38.0818 90.4139ZM224.963 251.532C224.361 249.093 224.214 245.094 224.636 242.646C225.058 240.199 225.452 238.161 225.51 238.117C225.569 238.074 227.318 239.012 229.397 240.201C236.871 244.477 251.822 246.323 276.045 245.958C291.297 245.729 301.066 244.576 307.119 242.291C310.618 240.971 311.803 240.048 314.725 236.37C318.979 231.014 320.384 230.126 321.508 232.083C323.002 234.682 319.948 238.855 314.086 242.222C306.077 246.823 299.068 248.284 282.737 248.758C277.467 248.911 265.575 249.345 256.311 249.722C238.153 250.464 237.115 250.748 228.972 257.213C225.373 260.071 225.277 260.095 225.662 258.062C225.88 256.909 225.566 253.971 224.963 251.532Z" fill="#201B19"></path> <path d="M224.636 242.646C224.214 245.094 224.361 249.093 224.963 251.532C225.566 253.971 225.88 256.909 225.662 258.062C225.277 260.095 225.373 260.071 228.972 257.213C237.115 250.748 238.153 250.464 256.311 249.722C265.575 249.345 277.467 248.911 282.737 248.758C299.068 248.284 306.077 246.823 314.086 242.222C319.948 238.855 323.002 234.682 321.508 232.083C320.384 230.126 318.979 231.014 314.725 236.37C311.803 240.048 310.618 240.971 307.119 242.291C301.066 244.576 291.297 245.729 276.045 245.958C251.822 246.323 236.871 244.477 229.397 240.201C227.318 239.012 225.569 238.074 225.51 238.117C225.452 238.161 225.058 240.199 224.636 242.646Z" fill="#FAF5E5"></path> <path d="M77.8445 93.8949C73.6454 93.8745 69.6074 87.4542 72.2141 84.9425C73.0766 84.1106 78.6669 85.3551 79.7931 86.6293C82.287 89.4488 81.0899 93.9109 77.8445 93.8949Z" fill="#201B19"></path> </svg>

<svg xmlns="http://www.w3.org/2000/svg" width="328" height="348" fill="none"><path fill-rule="evenodd" clip-rule="evenodd" d="M38.082 90.414c-1.656 2.478-2.649 6.206-3.634 13.636-.746 5.625-1.901 13.561-2.567 17.635-1.346 8.237-.862 18.909 1.391 30.722 2.563 13.43 4.777 19.473 14.953 40.817 1.288 2.7 4.193 6.985 6.715 9.9 2.444 2.827 6.075 7.52 8.07 10.427 9.523 13.885 22.213 25.526 35.214 32.307 2.75 1.434 5.075 2.736 5.165 2.893.391.68 30.124 17.706 56.229 22.756 12.621 2.441 15.307 4.455 41.157.937 17.375-2.364 21.243-3.601 23.796-7.604 1.343-2.107 8.944-8.087 13.309-10.471 1.579-.863 10.513-1.641 25.705-2.236 12.806-.503 23.764-.847 24.35-.766 2.859.397 15.109-1.704 20.789-3.565 8.81-2.888 14.17-7.336 15.705-13.037.77-2.855-1.529-6.122-4.428-6.293-2.303-.136-2.706.168-6.333 4.776-5.737 7.288-9.559 8.675-26.408 9.58-29.303 1.575-49.869-.441-57.89-5.672-2.698-1.761-3.371-2.635-4.05-5.264-.681-2.64-1.379-3.539-4.286-5.523-4.874-3.327-10.738-4.174-23.807-3.439-15.477.871-29.572-.241-32.53-.706-9.413-1.48-23.849-6.26-23.849-6.26s-18.119-5.234-25.91-8.572c-9.59-4.108-18.85-11.164-36.473-27.786-6.092-5.746-7.069-7.075-16.51-22.454-11.198-18.24-13.399-23.258-14.305-32.62-.658-6.802.168-19.686 1.534-23.927 2.33-7.233 1.24-15.306-2.192-16.235-2.165-.587-6.399 2.285-8.91 6.044Zm186.881 161.118c-.602-2.439-.749-6.438-.327-8.886.422-2.447.816-4.485.874-4.529.059-.043 1.808.895 3.887 2.084 7.474 4.276 22.425 6.122 46.648 5.757 15.252-.229 25.021-1.382 31.074-3.667 3.499-1.32 4.684-2.243 7.606-5.921 4.254-5.356 5.659-6.244 6.783-4.287 1.494 2.599-1.56 6.772-7.422 10.139-8.009 4.601-15.018 6.062-31.349 6.536-5.27.153-17.162.587-26.426.964-18.158.742-19.196 1.026-27.339 7.491-3.599 2.858-3.695 2.882-3.31.849.218-1.153-.096-4.091-.699-6.53Z" fill="#201B19"/><path d="M224.636 242.646c-.422 2.448-.275 6.447.327 8.886.603 2.439.917 5.377.699 6.53-.385 2.033-.289 2.009 3.31-.849 8.143-6.465 9.181-6.749 27.339-7.491 9.264-.377 21.156-.811 26.426-.964 16.331-.474 23.34-1.935 31.349-6.536 5.862-3.367 8.916-7.54 7.422-10.139-1.124-1.957-2.529-1.069-6.783 4.287-2.922 3.678-4.107 4.601-7.606 5.921-6.053 2.285-15.822 3.438-31.074 3.667-24.223.365-39.174-1.481-46.648-5.757-2.079-1.189-3.828-2.127-3.887-2.084-.058.044-.452 2.082-.874 4.529Z" fill="#FAF5E5"/><path d="M77.844 93.895c-4.199-.02-8.237-6.44-5.63-8.953.863-.831 6.453.413 7.58 1.687 2.493 2.82 1.296 7.282-1.95 7.266Z" fill="#201B19"/></svg>
